mobile/apps/auth/assets/custom-icons/icons/isc2.svg

<svg width="76" height="28" viewBox="0 0 76 28" fill="none" xmlns="http://www.w3.org/2000/svg">
    <path d="M3.6137 0.263554V24.2528C3.6137 24.3057 3.59223 24.3565 3.55413 24.3932L0.140163 27.6896C0.0876965 27.7404 0 27.703 0 27.6301V0.263554C0 0.217915 0.0370442 0.180891 0.0827069 0.180891H3.53099C3.57666 0.180891 3.6137 0.217915 3.6137 0.263554ZM12.9151 7.14572C12.9151 4.77676 14.8577 3.33976 17.4613 3.33976C19.7149 3.33976 21.3857 4.27186 23.173 5.94205C23.445 6.21361 23.5321 6.36292 23.8042 6.05236L25.4188 4.31055C25.6908 4 25.5433 3.92232 25.2713 3.65076C23.3283 1.39816 20.4529 0 17.4223 0C12.9538 0 9.41785 2.91284 9.41785 7.10703C9.41785 15.8838 22.9397 14.0583 22.9397 20.1554C22.9397 22.6408 20.764 24.5827 17.5388 24.5827C14.4361 24.5827 12.8017 23.1551 11.0921 21.524C10.8201 21.2522 10.7614 21.1884 10.5283 21.4216L8.68301 23.1634C8.411 23.3966 8.43746 23.4164 8.63175 23.7269C10.3993 26.1087 13.6923 27.9612 17.539 27.9612C22.3572 27.9612 26.5147 24.7768 26.5147 20.3107C26.5147 11.0679 12.9153 13.1263 12.9153 7.14557L12.9151 7.14572ZM44.5835 3.53395C47.3423 3.53395 49.596 4.58257 51.4999 6.17492C51.5444 6.213 51.6963 6.33632 51.743 6.37576C51.9289 6.53262 51.9644 6.53973 52.1883 6.30851C52.2428 6.25229 52.4023 6.08032 52.4023 6.08032L54.0336 4.29771C54.2087 4.09279 54.1792 4.07768 54.0528 3.94545C54.0011 3.89134 53.9102 3.80702 53.8311 3.72813C51.3835 1.55367 48.2361 0 44.5835 0C36.8514 0 30.8288 6.21361 30.8288 14.0196C30.8288 21.8255 36.8514 28 44.5835 28C48.2361 28 51.3906 26.3504 53.8384 24.1369C54.1104 23.9037 54.2128 23.8197 53.9409 23.5477L52.278 21.729C52.006 21.4571 51.9349 21.5213 51.6629 21.7545C49.759 23.3466 47.3422 24.4659 44.5834 24.4659C39.0271 24.4659 34.5199 19.9612 34.5199 14.0194C34.5199 8.03869 39.0272 3.53395 44.5835 3.53395ZM66.7904 0.0562167C63.2934 0.0562167 60.5212 1.59885 58.8115 3.73463C58.7651 3.78873 58.6609 3.93985 58.6299 3.98821C58.505 4.18286 58.541 4.19736 58.7175 4.39382C59.1585 4.88481 60.5292 6.43666 60.5292 6.43666C60.5868 6.49756 60.6405 6.49998 60.6904 6.45585C60.7448 6.4078 60.863 6.29536 60.9279 6.23174C62.0159 5.10544 63.8762 3.24107 66.7514 3.24107C69.9763 3.24107 71.9191 5.26049 71.9191 8.21187C71.9191 12.3999 69.5179 14.3919 64.1713 18.8858C62.6162 20.1928 59.7455 22.7114 59.029 23.3411C58.9234 23.4338 58.8637 23.5669 58.8637 23.7071V27.4699C58.8637 27.6378 59.0612 27.7277 59.1874 27.6169C60.6628 26.3236 66.7627 20.9799 68.7448 19.2968C73.8769 14.9387 75.2608 11.9788 75.2608 8.17288C75.2608 3.55163 71.9193 0.0563678 66.7902 0.0563678L66.7904 0.0562167Z" fill="black"/>
    <path d="M75.4003 24.6003H66.7791C66.6688 24.6003 66.5794 24.6896 66.5794 24.7999V27.3522C66.5794 27.4624 66.6688 27.5518 66.7791 27.5518H75.4003C75.5106 27.5518 75.6 27.4624 75.6 27.3522V24.7999C75.6 24.6896 75.5106 24.6003 75.4003 24.6003Z" fill="#468145"/>
</svg>

<svg xmlns="http://www.w3.org/2000/svg" fill="none" viewBox="0 0 76 28"><path fill="#000" d="M3.614.264v23.989a.195.195 0 0 1-.06.14L.14 27.69a.083.083 0 0 1-.14-.06V.264C0 .218.037.18.083.18H3.53c.046 0 .083.037.083.083Zm9.301 6.882c0-2.37 1.943-3.806 4.546-3.806 2.254 0 3.925.932 5.712 2.602.272.272.36.42.631.11l1.615-1.741c.272-.311.124-.389-.148-.66C23.328 1.398 20.453 0 17.422 0c-4.468 0-8.004 2.913-8.004 7.107 0 8.777 13.522 6.951 13.522 13.048 0 2.486-2.176 4.428-5.401 4.428-3.103 0-4.737-1.428-6.447-3.059-.272-.272-.33-.336-.564-.102l-1.845 1.741c-.272.234-.246.253-.051.564 1.767 2.382 5.06 4.234 8.907 4.234 4.818 0 8.976-3.184 8.976-7.65 0-9.243-13.6-7.185-13.6-13.165Zm31.669-3.612c2.758 0 5.012 1.049 6.916 2.64.044.039.196.162.243.202.186.157.221.164.445-.067.055-.057.214-.229.214-.229l1.632-1.782c.175-.205.145-.22.019-.353-.052-.054-.143-.138-.222-.217C51.383 1.554 48.236 0 44.583 0 36.852 0 30.83 6.214 30.83 14.02c0 7.806 6.022 13.98 13.755 13.98 3.652 0 6.807-1.65 9.254-3.863.272-.233.375-.317.103-.59l-1.663-1.818c-.272-.272-.343-.208-.615.026-1.904 1.592-4.32 2.71-7.08 2.71-5.556 0-10.063-4.504-10.063-10.446 0-5.98 4.507-10.485 10.063-10.485ZM66.79.056c-3.497 0-6.269 1.543-7.979 3.679a3.53 3.53 0 0 0-.181.253c-.125.195-.089.21.087.406.441.49 1.812 2.043 1.812 2.043.058.06.111.063.161.019.055-.048.173-.16.238-.224 1.088-1.127 2.948-2.99 5.823-2.99 3.225 0 5.168 2.018 5.168 4.97 0 4.188-2.401 6.18-7.748 10.674-1.555 1.307-4.426 3.825-5.142 4.455a.486.486 0 0 0-.165.366v3.763c0 .168.197.258.323.147 1.476-1.293 7.576-6.637 9.558-8.32 5.132-4.358 6.516-7.318 6.516-11.124 0-4.621-3.342-8.117-8.47-8.117Z"/><path fill="#468145" d="M75.4 24.6h-8.62a.2.2 0 0 0-.2.2v2.552c0 .11.089.2.2.2h8.62a.2.2 0 0 0 .2-.2V24.8a.2.2 0 0 0-.2-.2Z"/></svg>
